Newaita-dark/apps/scalable/libreoffice-main.svg

<?xml version="1.0" encoding="UTF-8"?>
<svg xmlns="http://www.w3.org/2000/svg" xmlns:xlink="http://www.w3.org/1999/xlink" width="512pt" height="512pt" viewBox="0 0 512 512" version="1.1">
<defs>
<linearGradient id="linear0" gradientUnits="userSpaceOnUse" x1="254" y1="233.5" x2="254" y2="254.666672" gradientTransform="matrix(1.000095,0,0,1.000095,-0.000061041,215.020562)">
<stop offset="0" style="stop-color:rgb(0%,0%,0%);stop-opacity:0.27451;"/>
<stop offset="1" style="stop-color:rgb(0%,0%,0%);stop-opacity:0;"/>
</linearGradient>
<radialGradient id="radial0" gradientUnits="userSpaceOnUse" cx="450.908936" cy="189.579361" fx="450.908936" fy="189.579361" r="21.166656" gradientTransform="matrix(0.00000278673,-1.250119,-2.250215,-0.00000162462,781.168722,1017.525321)">
<stop offset="0" style="stop-color:rgb(0%,0%,0%);stop-opacity:0.313725;"/>
<stop offset="0.222222" style="stop-color:rgb(0%,0%,0%);stop-opacity:0.27451;"/>
<stop offset="1" style="stop-color:rgb(0%,0%,0%);stop-opacity:0;"/>
</radialGradient>
<radialGradient id="radial1" gradientUnits="userSpaceOnUse" cx="450.908936" cy="189.579361" fx="450.908936" fy="189.579361" r="21.166656" gradientTransform="matrix(-0.00000278673,1.250119,2.250215,0.00000162462,-283.704519,-120.439662)">
<stop offset="0" style="stop-color:rgb(0%,0%,0%);stop-opacity:0.313725;"/>
<stop offset="0.222222" style="stop-color:rgb(0%,0%,0%);stop-opacity:0.27451;"/>
<stop offset="1" style="stop-color:rgb(0%,0%,0%);stop-opacity:0;"/>
</radialGradient>
<radialGradient id="radial2" gradientUnits="userSpaceOnUse" cx="450.908936" cy="189.579361" fx="450.908936" fy="189.579361" r="21.166656" gradientTransform="matrix(-0.00000278673,-1.250119,2.250215,-0.00000162462,-283.704519,1017.525321)">
<stop offset="0" style="stop-color:rgb(0%,0%,0%);stop-opacity:0.313725;"/>
<stop offset="0.222222" style="stop-color:rgb(0%,0%,0%);stop-opacity:0.27451;"/>
<stop offset="1" style="stop-color:rgb(0%,0%,0%);stop-opacity:0;"/>
</radialGradient>
<radialGradient id="radial3" gradientUnits="userSpaceOnUse" cx="450.908936" cy="189.579361" fx="450.908936" fy="189.579361" r="21.166656" gradientTransform="matrix(0.00000278673,1.250119,-2.250215,0.00000162462,781.168692,-120.43967)">
<stop offset="0" style="stop-color:rgb(0%,0%,0%);stop-opacity:0.313725;"/>
<stop offset="0.222222" style="stop-color:rgb(0%,0%,0%);stop-opacity:0.27451;"/>
<stop offset="1" style="stop-color:rgb(0%,0%,0%);stop-opacity:0;"/>
</radialGradient>
<filter id="alpha" filterUnits="objectBoundingBox" x="0%" y="0%" width="100%" height="100%">
  <feColorMatrix type="matrix" in="SourceGraphic" values="0 0 0 0 1 0 0 0 0 1 0 0 0 0 1 0 0 0 1 0"/>
</filter>
<mask id="mask0">
  <g filter="url(#alpha)">
<rect x="0" y="0" width="512" height="512" style="fill:rgb(0%,0%,0%);fill-opacity:0.988235;stroke:none;"/>
  </g>
</mask>
<linearGradient id="linear1" gradientUnits="userSpaceOnUse" x1="940" y1="1695.118164" x2="940" y2="175.118118" gradientTransform="matrix(0.264609,0,0,0.264609,0,0)">
<stop offset="0" style="stop-color:rgb(93.333333%,93.333333%,93.333333%);stop-opacity:1;"/>
<stop offset="1" style="stop-color:rgb(96.078431%,96.078431%,96.078431%);stop-opacity:1;"/>
</linearGradient>
<clipPath id="clip1">
  <rect x="0" y="0" width="512" height="512"/>
</clipPath>
<g id="surface5" clip-path="url(#clip1)">
<path style=" stroke:none;fill-rule:nonzero;fill:url(#linear1);" d="M 116.429688 46.335938 C 104.699219 46.335938 95.257812 55.777344 95.257812 67.507812 L 95.257812 427.375 C 95.257812 439.101562 104.699219 448.542969 116.429688 448.542969 L 381.035156 448.542969 C 392.765625 448.542969 402.203125 439.101562 402.203125 427.375 L 402.203125 141.597656 L 306.945312 46.335938 Z M 328.113281 46.335938 L 402.203125 120.429688 L 402.203125 67.507812 C 402.203125 55.777344 392.765625 46.335938 381.035156 46.335938 Z M 328.113281 46.335938 "/>
</g>
<mask id="mask1">
  <g filter="url(#alpha)">
<rect x="0" y="0" width="512" height="512" style="fill:rgb(0%,0%,0%);fill-opacity:0.988235;stroke:none;"/>
  </g>
</mask>
<linearGradient id="linear2" gradientUnits="userSpaceOnUse" x1="940" y1="1695.118164" x2="940" y2="175.118118" gradientTransform="matrix(0.264609,0,0,0.264609,0,0)">
<stop offset="0" style="stop-color:rgb(25.882353%,25.882353%,25.882353%);stop-opacity:1;"/>
<stop offset="1" style="stop-color:rgb(38.039216%,38.039216%,38.039216%);stop-opacity:1;"/>
</linearGradient>
<clipPath id="clip2">
  <rect x="0" y="0" width="512" height="512"/>
</clipPath>
<g id="surface8" clip-path="url(#clip2)">
<path style=" stroke:none;fill-rule:nonzero;fill:url(#linear2);" d="M 328.113281 46.335938 L 402.203125 120.429688 L 402.203125 67.507812 C 402.203125 55.777344 392.765625 46.335938 381.035156 46.335938 Z M 328.113281 46.335938 "/>
</g>
<mask id="mask2">
  <g filter="url(#alpha)">
<rect x="0" y="0" width="512" height="512" style="fill:rgb(0%,0%,0%);fill-opacity:0.988235;stroke:none;"/>
  </g>
</mask>
<clipPath id="clip3">
  <rect x="0" y="0" width="512" height="512"/>
</clipPath>
<g id="surface11" clip-path="url(#clip3)">
<path style=" stroke:none;fill-rule:nonzero;fill:rgb(100%,100%,100%);fill-opacity:0.392157;" d="M 116.429688 46.335938 C 104.699219 46.335938 95.257812 55.777344 95.257812 67.507812 L 95.257812 72.796875 C 95.257812 61.070312 104.699219 51.628906 116.429688 51.628906 L 306.945312 51.628906 L 402.203125 146.890625 L 402.203125 141.597656 L 306.945312 46.335938 Z M 328.113281 46.335938 L 333.40625 51.628906 L 381.035156 51.628906 C 392.765625 51.628906 402.203125 61.070312 402.203125 72.796875 L 402.203125 67.507812 C 402.203125 55.777344 392.765625 46.335938 381.035156 46.335938 Z M 328.113281 46.335938 "/>
</g>
<mask id="mask3">
  <g filter="url(#alpha)">
<rect x="0" y="0" width="512" height="512" style="fill:rgb(0%,0%,0%);fill-opacity:0.988235;stroke:none;"/>
  </g>
</mask>
<clipPath id="clip4">
  <rect x="0" y="0" width="512" height="512"/>
</clipPath>
<g id="surface14" clip-path="url(#clip4)">
<path style=" stroke:none;fill-rule:nonzero;fill:rgb(0%,0%,0%);fill-opacity:0.235294;" d="M 328.113281 46.335938 L 402.203125 120.429688 L 402.203125 112.574219 L 335.96875 46.335938 Z M 95.257812 419.519531 L 95.257812 427.375 C 95.257812 439.101562 104.699219 448.542969 116.429688 448.542969 L 381.035156 448.542969 C 392.765625 448.542969 402.203125 439.101562 402.203125 427.375 L 402.203125 419.519531 C 402.203125 431.246094 392.765625 440.691406 381.035156 440.691406 L 116.429688 440.691406 C 104.699219 440.691406 95.257812 431.246094 95.257812 419.519531 Z M 95.257812 419.519531 "/>
</g>
<mask id="mask4">
  <g filter="url(#alpha)">
<rect x="0" y="0" width="512" height="512" style="fill:rgb(0%,0%,0%);fill-opacity:0.988235;stroke:none;"/>
  </g>
</mask>
<clipPath id="clip5">
  <rect x="0" y="0" width="512" height="512"/>
</clipPath>
<g id="surface17" clip-path="url(#clip5)">
<path style=" stroke:none;fill-rule:nonzero;fill:rgb(12.941177%,12.941177%,12.941177%);fill-opacity:1;" d="M 116.429688 44.835938 C 103.894531 44.835938 93.757812 54.972656 93.757812 67.507812 L 93.757812 427.375 C 93.757812 439.90625 103.894531 450.042969 116.429688 450.042969 L 381.035156 450.042969 C 393.570312 450.042969 403.707031 439.90625 403.707031 427.375 L 403.707031 141.597656 C 403.707031 141.199219 403.546875 140.816406 403.265625 140.535156 L 308.007812 45.277344 C 307.726562 44.996094 307.34375 44.835938 306.945312 44.835938 Z M 328.113281 44.835938 C 327.507812 44.835938 326.960938 45.203125 326.726562 45.761719 C 326.496094 46.324219 326.625 46.96875 327.054688 47.398438 L 401.144531 121.488281 C 401.574219 121.917969 402.21875 122.046875 402.777344 121.8125 C 403.339844 121.582031 403.707031 121.035156 403.707031 120.429688 L 403.707031 67.507812 C 403.707031 54.972656 393.570312 44.835938 381.035156 44.835938 Z M 116.429688 47.835938 L 306.324219 47.835938 L 400.703125 142.21875 L 400.703125 427.375 C 400.703125 438.296875 391.957031 447.042969 381.035156 447.042969 L 116.429688 447.042969 C 105.503906 447.042969 96.757812 438.296875 96.757812 427.375 L 96.757812 67.507812 C 96.757812 56.582031 105.503906 47.835938 116.429688 47.835938 Z M 331.738281 47.835938 L 381.035156 47.835938 C 391.957031 47.835938 400.703125 56.582031 400.703125 67.507812 L 400.703125 116.804688 Z M 331.738281 47.835938 "/>
</g>
<mask id="mask5">
  <g filter="url(#alpha)">
<rect x="0" y="0" width="512" height="512" style="fill:rgb(0%,0%,0%);fill-opacity:0.988235;stroke:none;"/>
  </g>
</mask>
<linearGradient id="linear3" gradientUnits="userSpaceOnUse" x1="248.708344" y1="0.666667" x2="248.708344" y2="-221.583328" gradientTransform="matrix(1,0,0,1,0,127)">
<stop offset="0" style="stop-color:rgb(25.882353%,25.882353%,25.882353%);stop-opacity:1;"/>
<stop offset="1" style="stop-color:rgb(38.039216%,38.039216%,38.039216%);stop-opacity:1;"/>
</linearGradient>
<clipPath id="clip6">
  <rect x="0" y="0" width="512" height="512"/>
</clipPath>
<g id="surface20" clip-path="url(#clip6)">
<path style="fill-rule:nonzero;fill:url(#linear3);stroke-width:3;stroke-linecap:round;stroke-linejoin:round;stroke:rgb(12.941177%,12.941177%,12.941177%);stroke-opacity:1;stroke-miterlimit:4;" d="M 185.208876 -62.834844 L 312.208467 -62.834844 C 318.051659 -62.834844 322.793394 -58.093109 322.793394 -52.249917 L 322.793394 106.500548 C 322.793394 112.34374 318.051659 117.081569 312.208467 117.081569 L 185.208876 117.081569 C 179.361778 117.081569 174.623949 112.34374 174.623949 106.500548 L 174.623949 -52.249917 C 174.623949 -58.093109 179.361778 -62.834844 185.208876 -62.834844 Z M 185.208876 -62.834844 " transform="matrix(1.000095,0,0,1.000095,0,215.020531)"/>
</g>
</defs>
<g id="surface1">
<path style=" stroke:none;fill-rule:nonzero;fill:url(#linear0);" d="M 137.597656 448.542969 L 359.867188 448.542969 L 359.867188 469.710938 L 137.597656 469.710938 Z M 137.597656 448.542969 "/>
<path style=" stroke:none;fill-rule:nonzero;fill:url(#radial0);" d="M 359.867188 448.542969 L 402.207031 448.542969 L 402.207031 427.375 L 359.867188 427.375 Z M 359.867188 448.542969 "/>
<path style=" stroke:none;fill-rule:nonzero;fill:url(#radial1);" d="M 137.597656 448.542969 L 95.257812 448.542969 L 95.257812 469.710938 L 137.597656 469.710938 Z M 137.597656 448.542969 "/>
<path style=" stroke:none;fill-rule:nonzero;fill:url(#radial2);" d="M 137.597656 448.542969 L 95.257812 448.542969 L 95.257812 427.375 L 137.597656 427.375 Z M 137.597656 448.542969 "/>
<path style=" stroke:none;fill-rule:nonzero;fill:url(#radial3);" d="M 359.867188 448.542969 L 402.207031 448.542969 L 402.207031 469.710938 L 359.867188 469.710938 Z M 359.867188 448.542969 "/>
<use xlink:href="#surface5" mask="url(#mask0)"/>
<use xlink:href="#surface8" mask="url(#mask1)"/>
<use xlink:href="#surface11" mask="url(#mask2)"/>
<use xlink:href="#surface14" mask="url(#mask3)"/>
<use xlink:href="#surface17" mask="url(#mask4)"/>
<use xlink:href="#surface20" mask="url(#mask5)"/>
</g>
</svg>

<svg xmlns="http://www.w3.org/2000/svg" xmlns:xlink="http://www.w3.org/1999/xlink" width="512pt" height="512pt" viewBox="0 0 512 512"><defs><linearGradient id="k" gradientUnits="userSpaceOnUse" x1="254" y1="233.5" x2="254" y2="254.667" gradientTransform="matrix(1.0001 0 0 1.0001 0 215.02)"><stop offset="0" stop-opacity=".275"/><stop offset="1" stop-opacity="0"/></linearGradient><radialGradient id="l" gradientUnits="userSpaceOnUse" cx="450.909" cy="189.579" fx="450.909" fy="189.579" r="21.167" gradientTransform="matrix(0 -1.25012 -2.25021 0 781.169 1017.525)"><stop offset="0" stop-opacity=".314"/><stop offset=".222" stop-opacity=".275"/><stop offset="1" stop-opacity="0"/></radialGradient><radialGradient id="m" gradientUnits="userSpaceOnUse" cx="450.909" cy="189.579" fx="450.909" fy="189.579" r="21.167" gradientTransform="matrix(0 1.25012 2.25021 0 -283.705 -120.44)"><stop offset="0" stop-opacity=".314"/><stop offset=".222" stop-opacity=".275"/><stop offset="1" stop-opacity="0"/></radialGradient><radialGradient id="n" gradientUnits="userSpaceOnUse" cx="450.909" cy="189.579" fx="450.909" fy="189.579" r="21.167" gradientTransform="matrix(0 -1.25012 2.25021 0 -283.705 1017.525)"><stop offset="0" stop-opacity=".314"/><stop offset=".222" stop-opacity=".275"/><stop offset="1" stop-opacity="0"/></radialGradient><radialGradient id="o" gradientUnits="userSpaceOnUse" cx="450.909" cy="189.579" fx="450.909" fy="189.579" r="21.167" gradientTransform="matrix(0 1.25012 -2.25021 0 781.169 -120.44)"><stop offset="0" stop-opacity=".314"/><stop offset=".222" stop-opacity=".275"/><stop offset="1" stop-opacity="0"/></radialGradient><filter id="a" filterUnits="objectBoundingBox" x="0%" y="0%" width="100%" height="100%"><feColorMatrix in="SourceGraphic" values="0 0 0 0 1 0 0 0 0 1 0 0 0 0 1 0 0 0 1 0"/></filter><mask id="q"><path fill-opacity=".988" d="M0 0h512v512H0z" filter="url(#a)"/></mask><linearGradient id="c" gradientUnits="userSpaceOnUse" x1="940" y1="1695.118" x2="940" y2="175.118" gradientTransform="rotate(.158) scale(.26461)"><stop offset="0" stop-color="#eee"/><stop offset="1" stop-color="#f5f5f5"/></linearGradient><clipPath id="b"><path d="M0 0h512v512H0z"/></clipPath><g id="p" clip-path="url(#b)"><path d="M116.43 46.336a21.124 21.124 0 0 0-21.172 21.172v359.867a21.123 21.123 0 0 0 21.172 21.168h264.605a21.12 21.12 0 0 0 21.168-21.168V141.598l-95.258-95.262zm211.683 0l74.09 74.094V67.508a21.12 21.12 0 0 0-21.168-21.172zm0 0" fill="url(#c)"/></g><mask id="s"><path fill-opacity=".988" d="M0 0h512v512H0z" filter="url(#a)"/></mask><linearGradient id="e" gradientUnits="userSpaceOnUse" x1="940" y1="1695.118" x2="940" y2="175.118" gradientTransform="rotate(.158) scale(.26461)"><stop offset="0" stop-color="#424242"/><stop offset="1" stop-color="#616161"/></linearGradient><clipPath id="d"><path d="M0 0h512v512H0z"/></clipPath><g id="r" clip-path="url(#d)"><path d="M328.113 46.336l74.09 74.094V67.508a21.12 21.12 0 0 0-21.168-21.172zm0 0" fill="url(#e)"/></g><mask id="u"><path fill-opacity=".988" d="M0 0h512v512H0z" filter="url(#a)"/></mask><clipPath id="f"><path d="M0 0h512v512H0z"/></clipPath><g id="t" clip-path="url(#f)"><path d="M116.43 46.336a21.124 21.124 0 0 0-21.172 21.172v5.289a21.123 21.123 0 0 1 21.172-21.168h190.515l95.258 95.262v-5.293l-95.258-95.262zm211.683 0l5.293 5.293h47.63a21.12 21.12 0 0 1 21.167 21.168v-5.29a21.12 21.12 0 0 0-21.168-21.171zm0 0" fill="#fff" fill-opacity=".392"/></g><mask id="w"><path fill-opacity=".988" d="M0 0h512v512H0z" filter="url(#a)"/></mask><clipPath id="g"><path d="M0 0h512v512H0z"/></clipPath><g id="v" clip-path="url(#g)"><path d="M328.113 46.336l74.09 74.094v-7.856L335.97 46.336zM95.258 419.52v7.855a21.123 21.123 0 0 0 21.172 21.168h264.605a21.12 21.12 0 0 0 21.168-21.168v-7.855a21.123 21.123 0 0 1-21.168 21.171H116.43a21.126 21.126 0 0 1-21.172-21.171zm0 0" fill-opacity=".235"/></g><mask id="y"><path fill-opacity=".988" d="M0 0h512v512H0z" filter="url(#a)"/></mask><clipPath id="h"><path d="M0 0h512v512H0z"/></clipPath><g id="x" clip-path="url(#h)"><path d="M116.43 44.836c-12.535 0-22.672 10.137-22.672 22.672v359.867c0 12.531 10.137 22.668 22.672 22.668h264.605c12.535 0 22.672-10.137 22.672-22.668V141.598c0-.399-.16-.782-.441-1.063l-95.258-95.258a1.505 1.505 0 0 0-1.063-.441zm211.683 0c-.605 0-1.152.367-1.386.926a1.506 1.506 0 0 0 .328 1.636l74.09 74.09c.43.43 1.074.559 1.632.325.563-.231.93-.778.93-1.383V67.508c0-12.535-10.137-22.672-22.672-22.672zm-211.683 3h189.894l94.38 94.383v285.156a19.592 19.592 0 0 1-19.669 19.668H116.43a19.593 19.593 0 0 1-19.672-19.668V67.508a19.594 19.594 0 0 1 19.672-19.672zm215.308 0h49.297a19.593 19.593 0 0 1 19.668 19.672v49.297zm0 0" fill="#212121"/></g><mask id="A"><path fill-opacity=".988" d="M0 0h512v512H0z" filter="url(#a)"/></mask><linearGradient id="j" gradientUnits="userSpaceOnUse" x1="248.708" y1=".667" x2="248.708" y2="-221.583" gradientTransform="translate(0 127)"><stop offset="0" stop-color="#424242"/><stop offset="1" stop-color="#616161"/></linearGradient><clipPath id="i"><path d="M0 0h512v512H0z"/></clipPath><g id="z" clip-path="url(#i)"><path d="M185.209-62.835h127c5.843 0 10.584 4.742 10.584 10.585V106.5c0 5.844-4.741 10.582-10.585 10.582h-127c-5.846 0-10.584-4.738-10.584-10.581V-52.25c0-5.844 4.738-10.586 10.585-10.586zm0 0" transform="matrix(1.0001 0 0 1.0001 0 215.02)" fill="url(#j)" stroke-width="3" stroke-linecap="round" stroke-linejoin="round" stroke="#212121"/></g></defs><path d="M137.598 448.543h222.27v21.168h-222.27zm0 0" fill="url(#k)"/><path d="M359.867 448.543h42.34v-21.168h-42.34zm0 0" fill="url(#l)"/><path d="M137.598 448.543h-42.34v21.168h42.34zm0 0" fill="url(#m)"/><path d="M137.598 448.543h-42.34v-21.168h42.34zm0 0" fill="url(#n)"/><path d="M359.867 448.543h42.34v21.168h-42.34zm0 0" fill="url(#o)"/><use xlink:href="#p" mask="url(#q)"/><use xlink:href="#r" mask="url(#s)"/><use xlink:href="#t" mask="url(#u)"/><use xlink:href="#v" mask="url(#w)"/><use xlink:href="#x" mask="url(#y)"/><use xlink:href="#z" mask="url(#A)"/></svg>
